styles/emoji-one/1f393.svg

<svg xmlns="http://www.w3.org/2000/svg" viewBox="0 0 64 64" enable-background="new 0 0 64 64"><path fill="#596066" d="m13.13 30.18v6.812c0 14.03 37.743 14.03 37.743 0v-6.812h-37.743"/><path fill="#3e4347" d="M62 25.445 32 38.947 2 25.445 32 11.942z"/><g fill="#ffce31"><path d="m31.869 24.828c-4.586 2.065-14.585 6.565-14.999 6.752-.209.093-.361.317-.361.617 0 2.25 0 4.502 0 6.75 0 .826.982.826.982 0 0-2.098 0-4.197 0-6.295 4.466-2.01 14.226-6.402 14.64-6.589.594-.268.338-1.504-.262-1.235"/><ellipse cx="17" cy="38.947" rx="1.875" ry="2.445"/><path d="m17 51.943c1.035 0 1.875-.547 1.875-1.223v-11.773h-3.75v11.773c0 .676.84 1.223 1.875 1.223"/></g><g fill="#594640"><path d="m18.277 39.15c-.063.049-.128.092-.197.133v12.432c.069-.031.135-.066.197-.105v-12.46"/><path d="m17.491 39.512c-.064.016-.13.025-.196.035v12.381c.066-.008.132-.018.196-.029v-12.387"/><path d="m16.705 39.547c-.066-.01-.132-.02-.196-.035v12.387c.064.012.13.021.196.029v-12.381"/><path d="m15.92 39.29c-.069-.041-.135-.084-.196-.133v12.459c.062.039.127.074.196.105v-12.431"/></g></svg>

<svg xmlns="http://www.w3.org/2000/svg" viewBox="0 0 64 64"><path fill="#596066" d="M13.13 30.18v6.812c0 14.03 37.743 14.03 37.743 0V30.18H13.13"/><path fill="#3e4347" d="M62 25.445L32 38.947 2 25.445l30-13.503z"/><g fill="#ffce31"><path d="M31.869 24.828L16.87 31.58c-.209.093-.361.317-.361.617v6.75c0 .826.982.826.982 0v-6.295l14.64-6.589c.594-.268.338-1.504-.262-1.235"/><ellipse cx="17" cy="38.947" rx="1.875" ry="2.445"/><path d="M17 51.943c1.035 0 1.875-.547 1.875-1.223V38.947h-3.75V50.72c0 .676.84 1.223 1.875 1.223"/></g><g fill="#594640"><path d="M18.277 39.15a1.887 1.887 0 0 1-.197.133v12.432c.069-.031.135-.066.197-.105V39.15M17.491 39.512c-.064.016-.13.025-.196.035v12.381c.066-.008.132-.018.196-.029V39.512M16.705 39.547a2.507 2.507 0 0 1-.196-.035v12.387c.064.012.13.021.196.029V39.547M15.92 39.29a1.685 1.685 0 0 1-.196-.133v12.459c.062.039.127.074.196.105V39.29"/></g></svg>
